archcraft-icons-breeze/files/Archcraft/apps/22/system-file-manager.svg

<?xml version="1.0" encoding="UTF-8" standalone="no"?>
<!-- Created with Inkscape (http://www.inkscape.org/) -->

<svg
   xmlns:dc="http://purl.org/dc/elements/1.1/"
   xmlns:cc="http://creativecommons.org/ns#"
   xmlns:rdf="http://www.w3.org/1999/02/22-rdf-syntax-ns#"
   xmlns:svg="http://www.w3.org/2000/svg"
   xmlns="http://www.w3.org/2000/svg"
   xmlns:xlink="http://www.w3.org/1999/xlink"
   xmlns:sodipodi="http://sodipodi.sourceforge.net/DTD/sodipodi-0.dtd"
   xmlns:inkscape="http://www.inkscape.org/namespaces/inkscape"
   width="22"
   height="22"
   viewBox="0 0 22 22"
   id="svg7925"
   version="1.1"
   inkscape:version="0.91 r13725"
   sodipodi:docname="system-file-manager.svg">
  <defs
     id="defs7927">
    <linearGradient
       id="linearGradient4274"
       inkscape:collect="always">
      <stop
         id="stop4276"
         offset="0"
         style="stop-color:#ffffff;stop-opacity:1;" />
      <stop
         id="stop4278"
         offset="1"
         style="stop-color:#ffffff;stop-opacity:0.48760331" />
    </linearGradient>
    <linearGradient
       inkscape:collect="always"
       xlink:href="#linearGradient4274"
       id="linearGradient8485"
       gradientUnits="userSpaceOnUse"
       gradientTransform="matrix(0.69224711,0,0,0.69224711,-264.27155,1668.4354)"
       x1="390.57144"
       y1="498.298"
       x2="442.57144"
       y2="498.298" />
    <linearGradient
       inkscape:collect="always"
       xlink:href="#linearGradient4393"
       id="linearGradient4399"
       x1="419.4624"
       y1="499.23697"
       x2="432.57144"
       y2="523.79797"
       gradientUnits="userSpaceOnUse"
       gradientTransform="matrix(0.34616832,0,0,0.34616832,-141.20459,864.54218)" />
    <linearGradient
       inkscape:collect="always"
       id="linearGradient4393">
      <stop
         style="stop-color:#000000;stop-opacity:1;"
         offset="0"
         id="stop4395" />
      <stop
         style="stop-color:#000000;stop-opacity:0;"
         offset="1"
         id="stop4397" />
    </linearGradient>
    <linearGradient
       inkscape:collect="always"
       xlink:href="#linearGradient4172-5"
       id="linearGradient4178"
       y1="548.88599"
       y2="495.30789"
       x2="397.2283"
       gradientUnits="userSpaceOnUse"
       gradientTransform="matrix(0.34616832,0,0,0.34605565,-133.24271,862.87242)"
       x1="434.16153" />
    <linearGradient
       inkscape:collect="always"
       id="linearGradient4172-5">
      <stop
         style="stop-color:#127bdc;stop-opacity:1"
         id="stop4174-6" />
      <stop
         offset="1"
         style="stop-color:#64b4f4;stop-opacity:1"
         id="stop4176-6" />
    </linearGradient>
    <linearGradient
       inkscape:collect="always"
       xlink:href="#linearGradient4227"
       id="linearGradient4225"
       gradientUnits="userSpaceOnUse"
       x1="396.57144"
       y1="498.798"
       x2="426.57144"
       y2="511.798"
       gradientTransform="matrix(0.34616832,0,0,0.34616832,-133.24271,864.50368)" />
    <linearGradient
       id="linearGradient4227"
       inkscape:collect="always">
      <stop
         id="stop4229"
         offset="0"
         style="stop-color:#f5f5f5;stop-opacity:1" />
      <stop
         id="stop4231"
         offset="1"
         style="stop-color:#f9f9f9;stop-opacity:1" />
    </linearGradient>
    <linearGradient
       gradientTransform="matrix(0.34616832,0,0,0.34616832,-133.24271,862.81136)"
       inkscape:collect="always"
       xlink:href="#linearGradient4291"
       id="linearGradient4297"
       x1="388.57144"
       y1="487.798"
       x2="416.57144"
       y2="507.798"
       gradientUnits="userSpaceOnUse" />
    <linearGradient
       inkscape:collect="always"
       id="linearGradient4291">
      <stop
         style="stop-color:#1d5e8c;stop-opacity:1"
         offset="0"
         id="stop4293" />
      <stop
         style="stop-color:#2675a7;stop-opacity:1"
         offset="1"
         id="stop4295" />
    </linearGradient>
    <linearGradient
       inkscape:collect="always"
       xlink:href="#linearGradient4274"
       id="linearGradient8603"
       gradientUnits="userSpaceOnUse"
       gradientTransform="matrix(0.34616832,0,0,0.34616832,-133.24271,2893.0497)"
       x1="390.57144"
       y1="498.298"
       x2="442.57144"
       y2="498.298" />
    <linearGradient
       inkscape:collect="always"
       xlink:href="#linearGradient4274"
       id="linearGradient8603-0"
       gradientUnits="userSpaceOnUse"
       gradientTransform="matrix(0.34616832,0,0,0.34616832,-135.15325,827.3248)"
       x1="390.57144"
       y1="498.298"
       x2="442.57144"
       y2="498.298" />
  </defs>
  <sodipodi:namedview
     id="base"
     pagecolor="#ffffff"
     bordercolor="#666666"
     borderopacity="1.0"
     inkscape:pageopacity="0.0"
     inkscape:pageshadow="2"
     inkscape:zoom="1"
     inkscape:cx="14.052007"
     inkscape:cy="13.482364"
     inkscape:document-units="px"
     inkscape:current-layer="layer1"
     showgrid="false"
     units="px"
     inkscape:snap-bbox="true"
     inkscape:bbox-nodes="true"
     inkscape:object-nodes="true">
    <inkscape:grid
       type="xygrid"
       id="grid8605" />
  </sodipodi:namedview>
  <metadata
     id="metadata7930">
    <rdf:RDF>
      <cc:Work
         rdf:about="">
        <dc:format>image/svg+xml</dc:format>
        <dc:type
           rdf:resource="http://purl.org/dc/dcmitype/StillImage" />
        <dc:title />
      </cc:Work>
    </rdf:RDF>
  </metadata>
  <g
     inkscape:label="Livello 1"
     inkscape:groupmode="layer"
     id="layer1"
     transform="translate(0,-1030.3622)">
    <path
       inkscape:connector-curvature="0"
       style="fill:url(#linearGradient4297);fill-opacity:1"
       id="rect4180"
       d="m 1,1042.3622 20,0.501 0,-8.501 -10,0 -1.588488,-2.0013 -8.411512,0 z"
       sodipodi:nodetypes="ccccccc" />
    <rect
       ry="1.0000174"
       rx="0.9128685"
       y="1036.3622"
       x="2"
       height="5.0000172"
       width="18"
       id="rect4223"
       style="color:#000000;clip-rule:nonzero;display:inline;overflow:visible;visibility:visible;opacity:1;isolation:auto;mix-blend-mode:normal;color-interpolation:sRGB;color-interpolation-filters:linearRGB;solid-color:#000000;solid-opacity:1;fill:url(#linearGradient4225);fill-opacity:1;fill-rule:nonzero;stroke:none;stroke-width:1;stroke-linecap:butt;stroke-linejoin:miter;stroke-miterlimit:4;stroke-dasharray:none;stroke-dashoffset:0;stroke-opacity:1;marker:none;color-rendering:auto;image-rendering:auto;shape-rendering:auto;text-rendering:auto;enable-background:accumulate" />
    <path
       inkscape:connector-curvature="0"
       style="fill:url(#linearGradient4178)"
       d="m 9,1038.3622 -2,1 -6,0 -0.0895868,1.0011 -5e-7,9.5003 c 0,0.2699 0.244354,0.4954 0.4919395,0.4954 l 19.0105828,0.01 c 0.255387,0.01 0.500065,-0.1978 0.500065,-0.5 L 21,1038.3622 Z"
       id="rect4113"
       sodipodi:nodetypes="cccccscccc" />
    <path
       inkscape:connector-curvature="0"
       style="opacity:0.3;fill:#ffffff;fill-opacity:1;fill-rule:evenodd"
       id="path4224"
       d="m 1,1039.3622 -0.0895868,1.0011 7.0895868,0 1,-2 -2,0.9989 z"
       sodipodi:nodetypes="cccccc" />
    <path
       inkscape:connector-curvature="0"
       style="opacity:0.3;fill:#ffffff;fill-opacity:1;fill-rule:evenodd"
       id="path4196"
       d="m 9.411512,1032.3622 0.588488,3 11,0 0,-1 -10,0 z"
       sodipodi:nodetypes="cccccc" />
    <path
       style="opacity:0.09899998;fill:url(#linearGradient4399);fill-opacity:1;fill-rule:evenodd;stroke:none;stroke-width:1px;stroke-linecap:butt;stroke-linejoin:miter;stroke-opacity:1"
       d="m 0.9104132,1040.3633 7.0895868,-0 1,-2 12,0 0,11.6563 -10.385049,0 z"
       id="path4383"
       inkscape:connector-curvature="0"
       sodipodi:nodetypes="ccccccc" />
    <path
       style="color:#000000;clip-rule:nonzero;display:inline;overflow:visible;visibility:visible;opacity:0.85;isolation:auto;mix-blend-mode:normal;color-interpolation:sRGB;color-interpolation-filters:linearRGB;solid-color:#000000;solid-opacity:1;fill:url(#linearGradient8603);fill-opacity:1;fill-rule:nonzero;stroke:none;stroke-width:1;stroke-linecap:butt;stroke-linejoin:miter;stroke-miterlimit:4;stroke-dasharray:none;stroke-dashoffset:0;stroke-opacity:1;marker:none;color-rendering:auto;image-rendering:auto;shape-rendering:auto;text-rendering:auto;enable-background:accumulate"
       d="m 2.9121094,1036.3622 c -0.5057292,0 -0.9121094,0.446 -0.9121094,1 l 0,1 c 0,-0.554 0.4063802,-1 0.9121094,-1 l 16.0878906,0 c 0.505729,0 0.912109,0.446 0.912109,1 l 0,-1 c 0,-0.554 -0.40638,-1 -0.912109,-1 z"
       id="rect8607"
       inkscape:connector-curvature="0"
       sodipodi:nodetypes="sscsscsss" />
    <path
       style="fill:#000000;color:#000000;clip-rule:nonzero;display:inline;overflow:visible;visibility:visible;opacity:0.3;isolation:auto;mix-blend-mode:normal;color-interpolation:sRGB;color-interpolation-filters:linearRGB;solid-color:#000000;solid-opacity:1;fill-opacity:1;fill-rule:nonzero;stroke:none;stroke-width:1;stroke-linecap:butt;stroke-linejoin:miter;stroke-miterlimit:4;stroke-dasharray:none;stroke-dashoffset:0;stroke-opacity:1;marker:none;filter-blend-mode:normal;filter-gaussianBlur-deviation:0;color-rendering:auto;image-rendering:auto;shape-rendering:auto;text-rendering:auto;enable-background:accumulate"
       d="M 20.992188 8 L 20.912109 18.505859 C 20.912109 18.808059 20.667496 19.015859 20.412109 19.005859 L 1.4023438 18.996094 C 1.1547582 18.996094 0.91015625 18.771853 0.91015625 18.501953 L 0.91015625 19.501953 C 0.91015625 19.771853 1.1547582 19.996094 1.4023438 19.996094 L 20.412109 20.005859 C 20.667496 20.015859 20.912109 19.808059 20.912109 19.505859 L 21 8 L 20.992188 8 z "
       transform="translate(0,1030.3622)"
       id="path4164" />
  </g>
</svg>

<?xml version="1.0" encoding="UTF-8" standalone="no"?>
<!-- Created with Inkscape (http://www.inkscape.org/) -->

<svg
   width="22"
   height="22"
   viewBox="0 0 22 22"
   id="svg7925"
   version="1.1"
   inkscape:version="1.1.1 (3bf5ae0d25, 2021-09-20, custom)"
   sodipodi:docname="system-file-manager.svg"
   xmlns:inkscape="http://www.inkscape.org/namespaces/inkscape"
   xmlns:sodipodi="http://sodipodi.sourceforge.net/DTD/sodipodi-0.dtd"
   xmlns:xlink="http://www.w3.org/1999/xlink"
   xmlns="http://www.w3.org/2000/svg"
   xmlns:svg="http://www.w3.org/2000/svg"
   xmlns:rdf="http://www.w3.org/1999/02/22-rdf-syntax-ns#"
   xmlns:cc="http://creativecommons.org/ns#"
   xmlns:dc="http://purl.org/dc/elements/1.1/">
  <defs
     id="defs7927">
    <linearGradient
       id="linearGradient4274"
       inkscape:collect="always">
      <stop
         id="stop4276"
         offset="0"
         style="stop-color:#ffffff;stop-opacity:1;" />
      <stop
         id="stop4278"
         offset="1"
         style="stop-color:#ffffff;stop-opacity:0.48760331" />
    </linearGradient>
    <linearGradient
       inkscape:collect="always"
       xlink:href="#linearGradient4393"
       id="linearGradient4399"
       x1="419.4624"
       y1="499.23697"
       x2="432.57144"
       y2="523.79797"
       gradientUnits="userSpaceOnUse"
       gradientTransform="matrix(0.34616832,0,0,0.34616832,-141.20459,864.54108)" />
    <linearGradient
       inkscape:collect="always"
       id="linearGradient4393">
      <stop
         style="stop-color:#000000;stop-opacity:1;"
         offset="0"
         id="stop4395" />
      <stop
         style="stop-color:#000000;stop-opacity:0;"
         offset="1"
         id="stop4397" />
    </linearGradient>
    <linearGradient
       inkscape:collect="always"
       xlink:href="#linearGradient4227"
       id="linearGradient4225"
       gradientUnits="userSpaceOnUse"
       x1="396.57144"
       y1="498.798"
       x2="426.57144"
       y2="511.798"
       gradientTransform="matrix(0.34616832,0,0,0.34616832,-133.24271,864.50368)" />
    <linearGradient
       id="linearGradient4227"
       inkscape:collect="always">
      <stop
         id="stop4229"
         offset="0"
         style="stop-color:#f5f5f5;stop-opacity:1" />
      <stop
         id="stop4231"
         offset="1"
         style="stop-color:#f9f9f9;stop-opacity:1" />
    </linearGradient>
    <linearGradient
       inkscape:collect="always"
       xlink:href="#linearGradient4274"
       id="linearGradient8603"
       gradientUnits="userSpaceOnUse"
       gradientTransform="matrix(0.34616832,0,0,0.34616832,-133.24271,2893.0497)"
       x1="390.57144"
       y1="498.298"
       x2="442.57144"
       y2="498.298" />
    <linearGradient
       inkscape:collect="always"
       id="linearGradient919">
      <stop
         style="stop-color:#ffffff;stop-opacity:1;"
         offset="0"
         id="stop915" />
      <stop
         style="stop-color:#ffffff;stop-opacity:0;"
         offset="1"
         id="stop917" />
    </linearGradient>
    <linearGradient
       inkscape:collect="always"
       id="linearGradient39400">
      <stop
         style="stop-color:#000000;stop-opacity:1"
         offset="0"
         id="stop39396" />
      <stop
         style="stop-color:#147cdc;stop-opacity:0;"
         offset="1"
         id="stop39398" />
    </linearGradient>
    <style
       id="current-color-scheme"
       type="text/css">      .ColorScheme-Accent {
        color:#3593e6;
      }</style>
    <linearGradient
       inkscape:collect="always"
       xlink:href="#linearGradient919"
       id="linearGradient1011"
       gradientUnits="userSpaceOnUse"
       gradientTransform="translate(-357.69068,599.43449)"
       x1="360.38882"
       y1="433.5701"
       x2="374.5213"
       y2="447.5524" />
    <linearGradient
       inkscape:collect="always"
       xlink:href="#linearGradient39400"
       id="linearGradient17980"
       gradientUnits="userSpaceOnUse"
       gradientTransform="translate(-339.14904,544.38705)"
       x1="360.17596"
       y1="506.59558"
       x2="346.14905"
       y2="494.97516" />
    <linearGradient
       inkscape:collect="always"
       xlink:href="#linearGradient4393"
       id="linearGradient21328"
       gradientUnits="userSpaceOnUse"
       gradientTransform="translate(-334.23864,538.8223)"
       x1="357.48947"
       y1="494.85211"
       x2="384.41882"
       y2="541.49512" />
  </defs>
  <sodipodi:namedview
     id="base"
     pagecolor="#ffffff"
     bordercolor="#666666"
     borderopacity="1.0"
     inkscape:pageopacity="0.0"
     inkscape:pageshadow="2"
     inkscape:zoom="7.9999999"
     inkscape:cx="11.8125"
     inkscape:cy="2.25"
     inkscape:document-units="px"
     inkscape:current-layer="layer1"
     showgrid="false"
     units="px"
     inkscape:snap-bbox="true"
     inkscape:bbox-nodes="true"
     inkscape:object-nodes="true"
     inkscape:pagecheckerboard="0"
     inkscape:window-width="1298"
     inkscape:window-height="1047"
     inkscape:window-x="2538"
     inkscape:window-y="3"
     inkscape:window-maximized="1">
    <inkscape:grid
       type="xygrid"
       id="grid8605" />
  </sodipodi:namedview>
  <metadata
     id="metadata7930">
    <rdf:RDF>
      <cc:Work
         rdf:about="">
        <dc:format>image/svg+xml</dc:format>
        <dc:type
           rdf:resource="http://purl.org/dc/dcmitype/StillImage" />
      </cc:Work>
    </rdf:RDF>
  </metadata>
  <g
     transform="translate(1,1)"
     id="g37">
    <g
       inkscape:label="Livello 1"
       inkscape:groupmode="layer"
       id="layer1"
       transform="translate(0,-1030.3622)">
      <g
         id="g1182"
         transform="translate(-0.95507612,-1.0029229)">
        <path
           inkscape:connector-curvature="0"
           style="fill:currentColor"
           id="rect4180"
           d="m 1,1042.3622 20,0.501 v -8.501 H 11 l -1.588488,-2.0013 H 1 Z"
           sodipodi:nodetypes="ccccccc"
           class="ColorScheme-Accent" />
        <path
           inkscape:connector-curvature="0"
           style="opacity:0.35;fill:url(#linearGradient21328);fill-opacity:1"
           id="path21324"
           d="m 1,1042.3622 20,0.501 v -8.501 H 11 l -1.588488,-2.0013 H 1 Z"
           sodipodi:nodetypes="ccccccc" />
        <rect
           ry="1.0000174"
           rx="0.9128685"
           y="1036.3622"
           x="2"
           height="5.0000172"
           width="18"
           id="rect4223"
           style="color:#000000;clip-rule:nonzero;display:inline;overflow:visible;visibility:visible;opacity:1;isolation:auto;mix-blend-mode:normal;color-interpolation:sRGB;color-interpolation-filters:linearRGB;solid-color:#000000;solid-opacity:1;fill:url(#linearGradient4225);fill-opacity:1;fill-rule:nonzero;stroke:none;stroke-width:1;stroke-linecap:butt;stroke-linejoin:miter;stroke-miterlimit:4;stroke-dasharray:none;stroke-dashoffset:0;stroke-opacity:1;marker:none;color-rendering:auto;image-rendering:auto;shape-rendering:auto;text-rendering:auto;enable-background:accumulate" />
        <path
           inkscape:connector-curvature="0"
           style="fill:currentColor"
           d="m 9,1038.3622 -2,1 H 1 l -0.0895868,1.0011 -5e-7,9.5003 c 0,0.2699 0.244354,0.4954 0.4919395,0.4954 l 19.0105828,0.01 c 0.255387,0.01 0.500065,-0.1978 0.500065,-0.5 L 21,1038.3622 Z"
           id="rect4113"
           sodipodi:nodetypes="cccccscccc"
           class="ColorScheme-Accent" />
        <path
           style="color:#000000;clip-rule:nonzero;display:inline;overflow:visible;visibility:visible;opacity:0.85;isolation:auto;mix-blend-mode:normal;color-interpolation:sRGB;color-interpolation-filters:linearRGB;solid-color:#000000;solid-opacity:1;fill:url(#linearGradient8603);fill-opacity:1;fill-rule:nonzero;stroke:none;stroke-width:1;stroke-linecap:butt;stroke-linejoin:miter;stroke-miterlimit:4;stroke-dasharray:none;stroke-dashoffset:0;stroke-opacity:1;marker:none;color-rendering:auto;image-rendering:auto;shape-rendering:auto;text-rendering:auto;enable-background:accumulate"
           d="m 2.9121094,1036.3622 c -0.5057292,0 -0.9121094,0.446 -0.9121094,1 v 1 c 0,-0.554 0.4063802,-1 0.9121094,-1 H 19 c 0.505729,0 0.912109,0.446 0.912109,1 v -1 c 0,-0.554 -0.40638,-1 -0.912109,-1 z"
           id="rect8607"
           inkscape:connector-curvature="0"
           sodipodi:nodetypes="sscsscsss" />
        <path
           inkscape:connector-curvature="0"
           style="color:#3593e6;opacity:0.2;fill:url(#linearGradient1011);fill-opacity:1"
           d="m 9,1038.3622 -2,1 H 1 l -0.08959,1.0011 v 9.5003 c 0,0.2699 0.244354,0.4954 0.491939,0.4954 l 19.010583,0.01 c 0.255387,0.01 0.500065,-0.1978 0.500065,-0.5 l 0.087,-11.5068 z"
           id="path937"
           sodipodi:nodetypes="cccccscccc" />
        <path
           inkscape:connector-curvature="0"
           style="color:#3593e6;opacity:0.3;fill:url(#linearGradient17980);fill-opacity:1"
           d="m 9.000003,1038.3622 -2,1 h -6 l -0.08959,1.0011 v 9.5003 c 0,0.2699 0.244354,0.4954 0.491939,0.4954 l 19.010588,0.01 c 0.25538,0.01 0.50006,-0.1978 0.50006,-0.5 L 21,1038.3622 Z"
           id="path941"
           sodipodi:nodetypes="cccccscccc" />
        <path
           style="opacity:0.099;fill:url(#linearGradient4399);fill-opacity:1;fill-rule:evenodd;stroke:none;stroke-width:1px;stroke-linecap:butt;stroke-linejoin:miter;stroke-opacity:1"
           d="M 0.9104137,1040.3622 H 8 l 1,-2 h 12 v 11.6563 H 10.614951 Z"
           id="path4383"
           inkscape:connector-curvature="0"
           sodipodi:nodetypes="ccccccc" />
        <g
           id="g858"
           transform="translate(-3e-6,9.41e-4)">
          <path
             inkscape:connector-curvature="0"
             style="opacity:0.3;fill:#ffffff;fill-opacity:1;fill-rule:evenodd"
             id="path4224"
             d="m 1,1039.3622 -0.0895868,1.0011 H 8 l 1,-2 -2,0.9989 z"
             sodipodi:nodetypes="cccccc" />
          <path
             inkscape:connector-curvature="0"
             style="opacity:0.3;fill:#ffffff;fill-opacity:1;fill-rule:evenodd"
             id="path4196"
             d="m 9.411512,1032.3622 0.588488,3 h 11 v -1 H 11 Z"
             sodipodi:nodetypes="cccccc" />
          <path
             style="color:#000000;clip-rule:nonzero;display:inline;overflow:visible;visibility:visible;opacity:0.3;isolation:auto;mix-blend-mode:normal;color-interpolation:sRGB;color-interpolation-filters:linearRGB;solid-color:#000000;solid-opacity:1;fill:#000000;fill-opacity:1;fill-rule:nonzero;stroke:none;stroke-width:1;stroke-linecap:butt;stroke-linejoin:miter;stroke-miterlimit:4;stroke-dasharray:none;stroke-dashoffset:0;stroke-opacity:1;marker:none;color-rendering:auto;image-rendering:auto;shape-rendering:auto;text-rendering:auto;enable-background:accumulate"
             d="m 20.992188,8 -0.08008,10.505859 c 0,0.3022 -0.244613,0.51 -0.5,0.5 l -19.0097652,-0.0098 c -0.2475856,0 -0.49218755,-0.224241 -0.49218755,-0.494141 v 1 c 0,0.2699 0.24460195,0.494141 0.49218755,0.494141 l 19.0097652,0.0098 c 0.255387,0.01 0.5,-0.1978 0.5,-0.5 L 21,8 Z"
             transform="translate(0,1030.3622)"
             id="path4164" />
        </g>
      </g>
    </g>
  </g>
</svg>
